svgs/duotone/head-side.svg

<svg xmlns="http://www.w3.org/2000/svg" viewBox="0 0 512 512"><!-- Font Awesome Pro 6.0.0-alpha2 by @fontawesome - https://fontawesome.com License - https://fontawesome.com/license (Commercial License) --><defs><style>.fa-secondary{opacity:.4}</style></defs><path d="M509.222 275C488.223 227.875 460.724 123.25 436.101 88.25C397.603 33.625 334.481 0 266.11 0H191.989C85.995 0 0 86 0 192C0 248.75 24.749 299.625 63.996 334.875V512H319.982V448H383.979C419.352 448 447.975 419.375 447.975 384V320H479.973C503.097 320 518.596 296.125 509.222 275ZM352.002 224C334.378 224 320.004 209.625 320.004 192S334.378 160 352.002 160S384 174.375 384 192S369.626 224 352.002 224Z" class="fa-secondary"/><path d="M351.998 224C334.374 224 320 209.625 320 192S334.374 160 351.998 160S383.996 174.375 383.996 192S369.622 224 351.998 224Z" class="fa-primary"/></svg>

<svg xmlns="http://www.w3.org/2000/svg" viewBox="0 0 512 512"><!-- Font Awesome Pro 5.15.1 by @fontawesome - https://fontawesome.com License - https://fontawesome.com/license (Commercial License) --><defs><style>.fa-secondary{opacity:.4}</style></defs><path d="M509.21 275c-20.94-47.12-48.44-151.73-73.08-186.75A208 208 0 0 0 266.09 0H192C86 0 0 86 0 192a191.28 191.28 0 0 0 64 142.82V512h256v-64h64a64 64 0 0 0 64-64v-64h32a32 32 0 0 0 29.21-45zM320 224a32 32 0 1 1 32-32 32 32 0 0 1-32 32z" class="fa-secondary"/><path d="M320 224a32 32 0 1 1 32-32 32 32 0 0 1-32 32z" class="fa-primary"/></svg>
